icons/linear-new-office-tool-collection-tag-plus-add.svg

<svg xmlns="http://www.w3.org/2000/svg" width="32px" height="32px" viewBox="0 0 32 32" version="1.1">
    <title>linear-new-office-tool-collection-tag-plus-add</title>
    <g id="linear-new-office-tool-collection-tag-plus-add" stroke-width="1" fill-rule="evenodd">
        <path d="M25,3 C25.5522847,3 26,3.44771525 26,4 L26,29 C26,29.8321482 25.0429174,30.3002418 24.3860594,29.7893522 L16,23.266 L7.61394061,29.7893522 C6.98693979,30.2770195 6.08638721,29.8726794 6.00581425,29.1111605 L6,29 L6,4 C6,3.44771525 6.44771525,3 7,3 L25,3 Z M24,5 L8,5 L8,26.955 L15.3860594,21.2106478 C15.7110588,20.9578704 16.1531436,20.9325927 16.5015601,21.1348146 L16.6139406,21.2106478 L24,26.955 L24,5 Z M16,9 C16.5522847,9 17,9.44771525 17,10 L17,12 L19,12 C19.5522847,12 20,12.4477153 20,13 C20,13.5522847 19.5522847,14 19,14 L17,14 L17,16 C17,16.5522847 16.5522847,17 16,17 C15.4477153,17 15,16.5522847 15,16 L15,14 L13,14 C12.4477153,14 12,13.5522847 12,13 C12,12.4477153 12.4477153,12 13,12 L15,12 L15,10 C15,9.44771525 15.4477153,9 16,9 Z" id="&#24418;&#29366;" fill-rule="nonzero" />
    </g>
</svg>

<svg xmlns="http://www.w3.org/2000/svg" viewBox="0 0 32 32"><path fill="currentColor" d="M25 3a1 1 0 0 1 1 1v25a1 1 0 0 1-1.614.79L16 23.265l-8.386 6.523a1 1 0 0 1-1.608-.678L6 29V4a1 1 0 0 1 1-1zm-1 2H8v21.955l7.386-5.744a1 1 0 0 1 1.116-.076l.112.076L24 26.955zm-8 4a1 1 0 0 1 1 1v2h2a1 1 0 0 1 0 2h-2v2a1 1 0 0 1-2 0v-2h-2a1 1 0 0 1 0-2h2v-2a1 1 0 0 1 1-1"/></svg>
